src/48x48/places/folder-gruvbox-mix-aqua-steam.svg

<?xml version="1.0" encoding="UTF-8"?>
<svg width="48" height="48" version="1" xmlns="http://www.w3.org/2000/svg">
 <rect x="4" y="17" width="40" height="26" rx="2" ry="2" opacity=".2"/>
 <path d="m4 34c0 1.108 0.892 2 2 2h36c1.108 0 2-0.892 2-2v-22c0-1.108-0.892-2-2-2h-18c-3 0-4-4-7-4h-11c-1.108 0-2 0.892-2 2" fill="#477a5b"/>
 <rect x="4" y="15" width="40" height="26" rx="2" ry="2" opacity=".2"/>
 <rect x="6" y="13" width="36" height="16" rx="2" ry="2" fill="#DCE0BB"/>
 <rect x="4" y="16" width="40" height="26" rx="2" ry="2" fill="#8bba7f"/>
 <path d="m6 6c-1.108 0-2 0.892-2 2v1c0-1.108 0.892-2 2-2h11c3 0 4 4 7 4h18c1.108 0 2 0.892 2 2v-1c0-1.108-0.892-2-2-2h-18c-3 0-4-4-7-4z" fill="#DCE0BB" opacity=".1"/>
 <path d="m14 30.623 6.004 2.461c0.045 1.622 1.373 2.914 2.996 2.916 1.657 0 3.006-1.402 3-3l4-3c2.227 0 4-1.791 4-4s-1.791-4-4-4-4.001 1.772-4 4l-3 4c-0.544 0-1.082 0.152-1.549 0.436l-7.451-3.059m16-4.377c1.657 0 3 1.343 3 3s-1.343 3-3 3c-1.656 0-2.969-1.635-3-3 0-1.657 1.343-3 3-3zm0 1c-1.105 0-2 0.895-2 2s0.895 2 2 2 2-0.895 2-2-0.895-2-2-2zm-7 7c1.105 0 2 0.895 2 2s-0.895 2-2 2c-0.904 0-1.696-0.606-1.932-1.479l0.893 0.366c0.769 0.315 1.642-0.05 1.957-0.819s-0.049-1.642-0.818-1.957l-0.254-0.103c0.051-5e-3 0.103-7e-3 0.154-8e-3z" fill="#39433D"/>
</svg>

<svg xmlns="http://www.w3.org/2000/svg" width="48" height="48" version="1">
 <rect style="opacity:0.2" width="40" height="26" x="4" y="17" rx="2" ry="2"/>
 <path style="fill:#477a5b" d="M 4,34 C 4,35.108 4.892,36 6,36 H 42 C 43.108,36 44,35.108 44,34 V 12 C 44,10.892 43.108,10 42,10 H 24 C 21,10 20,6 17,6 H 6 C 4.892,6 4,6.892 4,8"/>
 <rect style="opacity:0.2" width="40" height="26" x="4" y="15" rx="2" ry="2"/>
 <rect style="fill:#DCE0BB" width="36" height="16" x="6" y="13" rx="2" ry="2"/>
 <rect style="fill:#8bba7f" width="40" height="26" x="4" y="16" rx="2" ry="2"/>
 <path style="opacity:0.1;fill:#DCE0BB" d="M 6,6 C 4.892,6 4,6.892 4,8 V 9 C 4,7.892 4.892,7 6,7 H 17 C 20,7 21,11 24,11 H 42 C 43.108,11 44,11.892 44,13 V 12 C 44,10.892 43.108,10 42,10 H 24 C 21,10 20,6 17,6 Z"/>
 <path style="fill:#39433D" d="M 14,30.623 20.004,33.084 C 20.049,34.706 21.377,35.998 23,36 24.657,36 26.006,34.598 26,33 L 30,30 C 32.227,30 34,28.209 34,26 34,23.791 32.209,22 30,22 27.791,22 25.999,23.772 26,26 L 23,30 C 22.456,30 21.918,30.152 21.451,30.436 L 14,27.377 M 30,23 C 31.657,23 33,24.343 33,26 33,27.657 31.657,29 30,29 28.344,29 27.031,27.365 27,26 27,24.343 28.343,23 30,23 Z M 30,24 C 28.895,24 28,24.895 28,26 28,27.105 28.895,28 30,28 31.105,28 32,27.105 32,26 32,24.895 31.105,24 30,24 Z M 23,31 C 24.105,31 25,31.895 25,33 25,34.105 24.105,35 23,35 22.096,35 21.304,34.394 21.068,33.521 L 21.961,33.887 C 22.73,34.202 23.603,33.837 23.918,33.068 24.233,32.299 23.869,31.426 23.1,31.111 L 22.846,31.008 C 22.897,31.003 22.949,31.001 23,31 Z"/>
</svg>
